icons/24x24_kanban_outline.svg

<svg xmlns="http://www.w3.org/2000/svg" width="24" height="24" viewBox="0 0 24 24">
  <path fill-rule="evenodd" d="M11,18 L11,7 L6,7 L6,18 L11,18 Z M5,4 L19,4 C19.5522847,4 20,4.44771525 20,5 L20,15 C20,15.5522847 19.5522847,16 19,16 L13,16 L13,19 C13,19.5522847 12.5522847,20 12,20 L5,20 C4.44771525,20 4,19.5522847 4,19 L4,5 C4,4.44771525 4.44771525,4 5,4 Z M13,7 L13,14 L18,14 L18,7 L13,7 Z"/>
</svg>

<svg width="24" height="24" fill="none" xmlns="http://www.w3.org/2000/svg"><path fill-rule="evenodd" clip-rule="evenodd" d="M11 18V7H6v11h5ZM5 4h14a1 1 0 0 1 1 1v10a1 1 0 0 1-1 1h-6v3a1 1 0 0 1-1 1H5a1 1 0 0 1-1-1V5a1 1 0 0 1 1-1Zm8 3v7h5V7h-5Z" fill="#000"/></svg>
